dist/buttons/online.svg

<svg width="80" height="80" viewBox="0 0 80 80" fill="none" xmlns="http://www.w3.org/2000/svg">
<path d="M21.0646 62.132C20.456 62.132 19.8913 62.033 19.3706 61.835C18.8573 61.637 18.41 61.3583 18.0286 60.999C17.6546 60.6397 17.3613 60.218 17.1486 59.734C16.9433 59.25 16.8406 58.722 16.8406 58.15C16.8406 57.578 16.9433 57.05 17.1486 56.566C17.3613 56.082 17.6583 55.6603 18.0396 55.301C18.421 54.9417 18.8683 54.663 19.3816 54.465C19.895 54.267 20.4523 54.168 21.0536 54.168C21.6623 54.168 22.2196 54.267 22.7256 54.465C23.239 54.663 23.6826 54.9417 24.0566 55.301C24.438 55.6603 24.735 56.082 24.9476 56.566C25.1603 57.0427 25.2666 57.5707 25.2666 58.15C25.2666 58.722 25.1603 59.2537 24.9476 59.745C24.735 60.229 24.438 60.6507 24.0566 61.01C23.6826 61.362 23.239 61.637 22.7256 61.835C22.2196 62.033 21.666 62.132 21.0646 62.132ZM21.0536 60.614C21.3983 60.614 21.7136 60.5553 21.9996 60.438C22.293 60.3207 22.5496 60.152 22.7696 59.932C22.9896 59.712 23.1583 59.4517 23.2756 59.151C23.4003 58.8503 23.4626 58.5167 23.4626 58.15C23.4626 57.7833 23.4003 57.4497 23.2756 57.149C23.1583 56.8483 22.9896 56.588 22.7696 56.368C22.557 56.148 22.304 55.9793 22.0106 55.862C21.7173 55.7447 21.3983 55.686 21.0536 55.686C20.709 55.686 20.39 55.7447 20.0966 55.862C19.8106 55.9793 19.5576 56.148 19.3376 56.368C19.1176 56.588 18.9453 56.8483 18.8206 57.149C18.7033 57.4497 18.6446 57.7833 18.6446 58.15C18.6446 58.5093 18.7033 58.843 18.8206 59.151C18.9453 59.4517 19.114 59.712 19.3266 59.932C19.5466 60.152 19.8033 60.3207 20.0966 60.438C20.39 60.5553 20.709 60.614 21.0536 60.614ZM27.3059 62V54.3H28.7799L33.3229 59.844H32.6079V54.3H34.3679V62H32.9049L28.3509 56.456H29.0659V62H27.3059ZM36.8897 62V54.3H38.6717V60.548H42.5327V62H36.8897ZM44.2283 62V54.3H46.0103V62H44.2283ZM48.5377 62V54.3H50.0117L54.5547 59.844H53.8397V54.3H55.5997V62H54.1367L49.5827 56.456H50.2977V62H48.5377ZM59.7605 57.402H63.4675V58.788H59.7605V57.402ZM59.8925 60.57H64.0835V62H58.1215V54.3H63.9405V55.73H59.8925V60.57Z" fill="#F9F9F9"/>
<path d="M31 19H37V49H31C27.134 49 24 45.866 24 42V26C24 22.134 27.134 19 31 19Z" stroke="white" stroke-width="2"/>
<path d="M41 18H47C51.4183 18 55 21.5817 55 26V42C55 46.4183 51.4183 50 47 50H41V18Z" fill="white"/>
<circle cx="48" cy="35" r="3" fill="#FF2424"/>
<circle cx="31" cy="28" r="3" fill="white"/>
</svg>

<svg xmlns="http://www.w3.org/2000/svg" width="80" height="80" fill="none"><path fill="#F9F9F9" d="M21.065 62.132a4.7 4.7 0 0 1-1.694-.297 4.1 4.1 0 0 1-1.342-.836 3.9 3.9 0 0 1-.88-1.265 4 4 0 0 1-.308-1.584q0-.858.308-1.584.319-.726.89-1.265a4.1 4.1 0 0 1 1.343-.836 4.6 4.6 0 0 1 1.672-.297q.913 0 1.672.297.77.297 1.33.836a3.84 3.84 0 0 1 1.21 2.849q0 .858-.318 1.595-.32.726-.891 1.265a4 4 0 0 1-1.331.825 4.5 4.5 0 0 1-1.661.297m-.011-1.518q.517 0 .946-.176.44-.176.77-.506t.506-.781q.186-.45.187-1.001 0-.55-.187-1.001a2.2 2.2 0 0 0-.506-.781 2.15 2.15 0 0 0-.76-.506 2.6 2.6 0 0 0-.956-.176q-.518 0-.957.176a2.3 2.3 0 0 0-.76.506q-.33.33-.516.781-.176.45-.176 1.001 0 .54.176 1.001.186.45.506.781.33.33.77.506t.957.176M27.306 62v-7.7h1.474l4.543 5.544h-.715V54.3h1.76V62h-1.463l-4.554-5.544h.715V62zm9.584 0v-7.7h1.782v6.248h3.86V62zm7.338 0v-7.7h1.782V62zm4.31 0v-7.7h1.474l4.543 5.544h-.715V54.3h1.76V62h-1.463l-4.554-5.544h.715V62zm11.223-4.598h3.706v1.386h-3.706zm.131 3.168h4.191V62h-5.962v-7.7h5.82v1.43h-4.049z"/><path stroke="#fff" stroke-width="2" d="M31 19h6v30h-6a7 7 0 0 1-7-7V26a7 7 0 0 1 7-7Z"/><path fill="#fff" d="M41 18h6a8 8 0 0 1 8 8v16a8 8 0 0 1-8 8h-6z"/><circle cx="48" cy="35" r="3" fill="#FF2424"/><circle cx="31" cy="28" r="3" fill="#fff"/></svg>
